packages/core/src/svgs/pal.svg

<svg width="24" height="24" viewBox="0 0 24 24" fill="none" xmlns="http://www.w3.org/2000/svg">
<g clip-path="url(#clip0_31_15702)">
<path d="M0 0H24V24H0V0Z" fill="url(#paint0_linear_31_15702)"/>
<path d="M9.99475 12.7218C9.95538 12.7487 9.92259 12.7842 9.89884 12.8255C9.87509 12.8668 9.861 12.913 9.85761 12.9606C9.85546 13.5224 9.85675 14.0791 9.85761 14.6388C9.85761 15.0083 9.61418 15.1596 9.30775 14.9761C8.27575 14.3568 7.63889 13.8593 7.04189 13.4963C6.94032 13.4346 6.85761 13.2837 6.85761 13.1607V10.8661L6.85718 10.8657V7.23012C6.85718 7.10712 6.94075 6.95584 7.04232 6.89412L9.85461 5.18969C9.91198 5.15908 9.97601 5.14307 10.041 5.14307C10.1061 5.14307 10.1701 5.15908 10.2275 5.18969L13.0912 6.89412C13.1932 6.95584 13.2857 7.10712 13.2857 7.23012V10.6416C13.2857 10.765 13.1932 10.9158 13.0912 10.978C12.1355 11.557 10.9505 12.1424 9.99475 12.7218ZM14.1433 11.0521C14.1446 10.4907 14.1433 9.93355 14.1433 9.37427C14.1425 9.00484 14.4026 8.85312 14.709 9.03698C15.741 9.65627 16.3612 10.141 16.9582 10.504C17.0597 10.5657 17.1429 10.7166 17.1429 10.8396V16.7701C17.1429 16.8931 17.0597 17.0444 16.9577 17.1061L14.1455 18.8106C14.0881 18.8412 14.0241 18.8572 13.959 18.8572C13.894 18.8572 13.83 18.8412 13.7726 18.8106L10.9153 17.1061C10.8137 17.0444 10.7143 16.8931 10.7143 16.7701V13.3587C10.7143 13.2357 10.8137 13.0844 10.9157 13.0227C11.8715 12.4437 13.0663 11.8707 14.022 11.2917C14.0945 11.248 14.1425 11.1404 14.1429 11.0526L14.1433 11.0521Z" fill="white"/>
</g>
<defs>
<linearGradient id="paint0_linear_31_15702" x1="12" y1="0" x2="12" y2="24" gradientUnits="userSpaceOnUse">
<stop stop-color="#00EDD8"/>
<stop offset="1" stop-color="#00D7AF"/>
</linearGradient>
<clipPath id="clip0_31_15702">
<rect width="24" height="24" fill="white"/>
</clipPath>
</defs>
</svg>

<svg xmlns="http://www.w3.org/2000/svg" width="24" height="24" fill="none" viewBox="0 0 24 24"><g clip-path="url(#a)"><path fill="url(#b)" d="M0 0h24v24H0z"/><path fill="#fff" d="M9.995 12.722a.32.32 0 0 0-.137.239q-.003.84 0 1.678c0 .37-.244.52-.55.337-1.032-.62-1.67-1.117-2.266-1.48a.43.43 0 0 1-.184-.335V7.23c0-.123.083-.274.184-.336L9.855 5.19a.4.4 0 0 1 .372 0l2.864 1.704a.45.45 0 0 1 .195.336v3.412a.45.45 0 0 1-.195.336c-.955.579-2.14 1.164-3.096 1.744m4.148-1.67q.002-.84 0-1.678c0-.37.26-.52.566-.337 1.032.62 1.652 1.104 2.25 1.467a.44.44 0 0 1 .184.336v5.93a.44.44 0 0 1-.185.336l-2.812 1.705a.4.4 0 0 1-.373 0l-2.858-1.705a.45.45 0 0 1-.2-.336V13.36c0-.123.099-.275.2-.336.957-.58 2.151-1.152 3.107-1.731.072-.044.12-.152.12-.24z"/></g><defs><linearGradient id="b" x1="12" x2="12" y1="0" y2="24" gradientUnits="userSpaceOnUse"><stop stop-color="#00EDD8"/><stop offset="1" stop-color="#00D7AF"/></linearGradient><clipPath id="a"><path fill="#fff" d="M0 0h24v24H0z"/></clipPath></defs></svg>
